X:7596
T:Tom Jolly's Hornpipe. GHW.062
T:Liverpool Hp.,aka. GHW.062
O:england
M:2/4
L:1/8
Q:360
S:George H.Watson,MS,Swanton Abbott,Norfolk,1850-1880
R:Hornpipe
A:Norfolk
K:D
G2|(FD).F.A (df).a.f|(gf).e.d (dc).B.A|(GB).G.B (FA).F.A|(GB).A.G (GF).E
.D|
(FD).F.A (df).a.f|(ge).f.e (dc).B.A|f2 (fg) (af).d.f|(ge).c.e d2:|
|:A2|(df).d.f (ce).c.e|(df).e.d (dc).B.A|(GB).G.B (FA).F.A|(GB).A.G (GF)
.E
.D|
(FD).F.A (df).a.f|(ge).f.e (dc).B.A|f2 (fg) (af).d.f|(ge).c.e d2:|


